!!!COM: Mozart, Wolfgang Amadeus
!!!OTL: Quartet No. 4 in A Major for flute, violin, viola and cello
!!!OMD: Andante
!!!OMV: 1
!!!SCT1: K<sup>1</sup> 298
!!!SCA: Chronologisch-thematisches Verzeichnis sämtlicher Tonwerke Wolfgang Amade Mozarts (L. von Köchel; 1862, 2/1905, 3/1937, 1947)
!!!SCT2: K<sup>6</sup> 298
!!!YOR: Breitkopf & Härtel Edition
!!!ENC: Frances Bennion
!!!CDT: 1756/1/27/-1791/12/5/
!!!OCY: Österreich
!!!YEC: Copyright (c) 1994, 2000 Center for Computer Assisted Research in the Humanities
!!!YEM: Rights to all derivative editions reserved.
!!!YEM: Refer to licensing agreement for further details.
!!!YEN: United States of America
**kern	**kern	**kern	**kern
*k[f#c#g#]	*k[f#c#g#]	*k[f#c#g#]	*k[f#c#g#]
*A:	*A:	*A:	*A:
*clefC	*clefF	*clefG	*clefG
*M2/2	*M2/2	*M2/2	*M2/2
2.r	2.r	2.r	2.r
4r	4r	4r	4e
=1	=1	=1	=1
1A	[1e	1c#	4a
.	.	.	8a
.	.	.	8b
.	.	.	4cc#
.	.	.	4a
=2	=2	=2	=2
2.G#	1e]	2.B	4ee
.	.	.	8ee
.	.	.	8ff#
.	.	.	4ee
4E	.	4g#	4dd
=3	=3	=3	=3
4A	4e	4a	8dd
.	.	.	8cc#
4r	4r	4r	8b
.	.	.	8a
2F#	2A	4.d#	8a
.	.	.	16b
.	.	.	16a
.	.	.	8g#
.	.	8f#	8a
=4	=4	=4	=4
4.E	4G#	4B	4b
.	2r	2r	4e
8F#	.	.	.
8E	.	.	4e
8C#	.	.	.
8D	4d	4G#	4e
8BB	.	.	.
=5	=5	=5	=5
2.AA	2c#	2.A	4a
.	.	.	8a
.	.	.	8b
.	2e	.	4cc#
4A	.	4c#	4a
=6	=6	=6	=6
4G#	4e	4B	4b
4r	4r	4r	4ee
4E	4g#	4b	4ee
4r	4r	4r	4gg#
=7	=7	=7	=7
4A	2.e	4cc#	4ff#
8G#	.	8b	8ee
8A	.	8cc#	8ff#
4B	.	4b	4gg#
4BB	4a	4dd#	4ff#
=8	=8	=8	=8
4E	2g#	2ee	2ee
4BB	.	.	.
4EE	4r	4r	4r
4r	4r	4r	4ee
=9	=9	=9	=9
1D	[1e	4.g#	4b
.	.	.	8b
.	.	8a	8cc#
.	.	4b	4dd
.	.	4g#	4b
=10	=10	=10	=10
2.C#	2e]	2a	4.ee
.	.	.	8cc#
.	2c#	4e	4a
4E	.	4g	4a#
=11	=11	=11	=11
4D	4d	4f#	4b
4C#	4e	4a#	4cc#
4BB	4f#	8b	4dd
.	.	8f#	.
4D	4f#	8e	8cc#
.	.	8d	8b
=12	=12	=12	=12
[2E	[2e	4.c#	4.a
.	.	8d	8b
8E]	4e]	4B	4g#
8D#	.	.	.
8D	4r	4r	4e
8BB	.	.	.
=13	=13	=13	=13
2.AA	2.E	2c#	4a
.	.	.	8a
.	.	.	8b
.	.	4A	4cc#
4A	4e	4c#	4a
=14	=14	=14	=14
2.G#	[1e	2.B	4ee
.	.	.	8ee
.	.	.	8ff#
.	.	.	4ee
4E	.	4g#	4dd
=15	=15	=15	=15
4A	4e]	4a	4cc#
4F#	4B	4d#	8a
.	.	.	8b
4E	4A	4e	4cc#
4E	4d	4g#	4b
=16	=16	=16	=16
4A	2c#	2a	2a
4E	.	.	.
4AA	4r	4r	4r
4r	4r	4r	4ee
=17	=17	=17	=17
2A	2e	2cc#	8aa
.	.	.	8a
.	.	.	8cc#
.	.	.	8ee
4r	4r	4r	8aa
.	.	.	16aa
.	.	.	16bb
4A	4e	4cc#	8ccc#
.	.	.	16bb
.	.	.	16aa
=18	=18	=18	=18
4.G#	[1e	[4dd	8bb
.	.	.	16bb
.	.	.	16aa
.	.	16dd]	8bb
.	.	16cc#	.
8A	.	16b	8ccc#
.	.	16a	.
4.B	.	8g#	4.ddd
.	.	8b	.
.	.	8ee	.
8G#	.	8dd	8bb
=19	=19	=19	=19
4A	4e]	4cc#	8ddd
.	.	.	8ccc#
4r	4r	4r	8bb
.	.	.	8aa
2F#	2a	2dd#	16bb
.	.	.	16aa
.	.	.	16gg#
.	.	.	16aa
.	.	.	16gg#
.	.	.	16aa
.	.	.	16gg#
.	.	.	16aa
=20	=20	=20	=20
8E	8g#	8ee	[4bb
8r	8r	8r	.
8BB	8A	8d#	16bb]
.	.	.	16gg#
8r	8r	8r	16aa
.	.	.	16ff#
8EE	8G#	8e	4ee
8D	8G#	8B	.
8C#	8A	8c#	8r
8BB	8G#	8d	8ee
=21	=21	=21	=21
4AA	4A	4c#	8aa
.	.	.	8a
2r	2r	2r	8cc#
.	.	.	8ee
.	.	.	8aa
.	.	.	8ccc#
4A	4e	4cc#	8eee
.	.	.	8ccc#
=22	=22	=22	=22
4G#	4b	4ee	16bb
.	.	.	16ee
.	.	.	16ff#
.	.	.	16gg#
4r	4.r	4.r	16aa
.	.	.	16bb
.	.	.	16ccc#
.	.	.	16ddd#
2GG#	.	.	8eee
.	4e	8B	8ddd
.	.	8c#	8ccc#
.	[8e	8d	8bb#
=23	=23	=23	=23
4AA	4e]	4c#	8ccc#
.	.	.	16ddd#
.	.	.	16eee
4A	8r	4ff#	16ddd#
.	.	.	16ccc#
.	8cc#	.	16bb
.	.	.	16aa
4B	4b	4ee	4gg#
4BB	4a	4dd#	4ff#
=24	=24	=24	=24
4E	4a	4dd#	4ff#
4BB	4g#	4ee	4ee
4EE	4r	4r	4r
4r	4r	4r	4bb
=25	=25	=25	=25
2.D	2.d	2.f#	8aa#
.	.	.	8bb
.	.	.	8ccc#
.	.	.	8bb
.	.	.	8ddd
.	.	.	4bb
4d	4e	8g#	.
.	.	8b	8gg#
=26	=26	=26	=26
4c#	4e	4a	16aa
.	.	.	16bb
.	.	.	16aa
.	.	.	16bb
2r	4.r	4.r	16ccc#
.	.	.	16ddd
.	.	.	16ccc#
.	.	.	16ddd
.	.	.	4eee
.	8e	8g	.
4F#	8d	8f#	4aa#
.	8c#	8e	.
=27	=27	=27	=27
4BB	4B	4d	8bb
.	.	.	8b
2r	2r	2r	8dd
.	.	.	8ff#
.	.	.	8bb
.	.	.	8ccc#
4BB	8d	8ff#	8ddd
.	8f#	16ee	16ccc#
.	.	16dd	16bb
=28	=28	=28	=28
4EE	[2e	4.cc#	4.aa
4E	.	.	.
.	.	8dd	8bb
4EE	8e]	8b	4gg#
.	8b	8dd	.
4r	8a	8cc#	4ee
.	8g#	8b	.
=29	=29	=29	=29
4AA	4a	4cc#	8aa
.	.	.	8a
2r	2r	2r	8cc#
.	.	.	8ee
.	.	.	8aa
.	.	.	16aa
.	.	.	16bb
4A	4e	4cc#	8ccc#
.	.	.	16bb
.	.	.	16aa
=30	=30	=30	=30
4.G#	[1e	[4dd	8bb
.	.	.	16bb
.	.	.	16aa
.	.	16dd]	8bb
.	.	16cc#	.
8A	.	16b	8ccc#
.	.	16a	.
4.B	.	8g#	4.ddd
.	.	8b	.
.	.	8ee	.
8G#	.	8dd	8bb
=31	=31	=31	=31
4A	4e]	4cc#	8ccc#
.	.	.	8ddd
2r	4r	4r	8ddd#
.	.	.	8eee
.	4cc#	4ee	4aa
4E	4g#	8dd	8bb
.	.	16cc#	16aa
.	.	16dd	16bb
=32	=32	=32	=32
4A	4g#	4dd	4bb
4E	4a	4cc#	4aa
4AA	4r	4r	4r
4r	4r	16e	4r
.	.	16f#	.
.	.	16e	.
.	.	16d	.
=33	=33	=33	=33
4r	1cc#	16c#	[1ee
.	.	16e	.
.	.	16f#	.
.	.	16g#	.
4e	.	16a	.
.	.	16g#	.
.	.	16b	.
.	.	16a	.
4A	.	16cc#	.
.	.	16b	.
.	.	16a	.
.	.	16g#	.
4c#	.	16f#	.
.	.	16e	.
.	.	16d	.
.	.	16c#	.
=34	=34	=34	=34
4r	1dd	16B	1ee_
.	.	16d#	.
.	.	16e	.
.	.	16f#	.
4B	.	16g#	.
.	.	16f#	.
.	.	16a	.
.	.	16g#	.
4E	.	16b	.
.	.	16a	.
.	.	16g#	.
.	.	16f#	.
4G#	.	16e	.
.	.	16d	.
.	.	16c#	.
.	.	16B	.
=35	=35	=35	=35
4r	2cc#	16A	4ee]
.	.	16c#	.
.	.	16e	.
.	.	16g#	.
4A	.	16a	4ee#
.	.	16b	.
.	.	16a	.
.	.	16g	.
4D	2dd	16f#	4ff#
.	.	16g	.
.	.	16f#	.
.	.	16e	.
4B	.	16d	4bb
.	.	16e	.
.	.	16f#	.
.	.	16d	.
=36	=36	=36	=36
4E	4cc#	16e	4aa
.	.	16dd#	.
.	.	16ee	.
.	.	16dd#	.
4.e	4b	16ee	4gg#
.	.	16ee#	.
.	.	16ff#	.
.	.	16ee	.
.	2r	16dd	2r
.	.	16cc#	.
16d	.	16b	.
16c#	.	16a	.
16B	.	16g#	.
16A	.	16f#	.
16G#	.	16e	.
16B	.	16d	.
=37	=37	=37	=37
4A	1cc#	16c#	[1eee
.	.	16e	.
.	.	16f#	.
.	.	16g#	.
8.E	.	16a	.
.	.	16g#	.
.	.	16cc#	.
16C#	.	16b	.
4AA	.	16a	.
.	.	16g#	.
.	.	16f#	.
.	.	16e	.
4A	.	16d	.
.	.	16c#	.
.	.	16B	.
.	.	16A	.
=38	=38	=38	=38
4E	1b	16G#	1eee_
.	.	16B	.
.	.	16e	.
.	.	16f#	.
8.BB	.	16g#	.
.	.	16f#	.
.	.	16b	.
16GG#	.	16a	.
4EE	.	16g#	.
.	.	16f#	.
.	.	16e	.
.	.	16d#	.
4E	.	16c#	.
.	.	16B	.
.	.	16A	.
.	.	16G#	.
=39	=39	=39	=39
8AA	8cc#	16A	8eee]
.	.	16c#	.
8r	8a	16e	8ccc#
.	.	16a	.
8A	8a	16c#	8ccc#
.	.	16f#	.
8r	8f#	16a	8aa
.	.	16cc#	.
8B	8e	16B	8gg#
.	.	16e	.
8r	8r	16g#	8r
.	.	16b	.
8BB	8d#	16B	8ff#
.	.	16d#	.
8r	8r	16f#	8r
.	.	16b	.
=40	=40	=40	=40
8E	2d#	16a	2ff#
.	.	16g#	.
8r	.	16f#	.
.	.	16e	.
8BB	.	16d#	.
.	.	16c#	.
8r	.	16B	.
.	.	16A	.
4EE	4e	4G#	4ee
4r	4r	16g#	4r
.	.	16a	.
.	.	16g#	.
.	.	16f#	.
=41	=41	=41	=41
4r	1g#	16e	1bb
.	.	16dd#	.
.	.	16ee	.
.	.	16dd#	.
4D	.	16ee	.
.	.	16dd#	.
.	.	16ee	.
.	.	16dd#	.
4d	.	16ee	.
.	.	16dd	.
.	.	16cc#	.
.	.	16b	.
4D	.	16a	.
.	.	16g#	.
.	.	16f#	.
.	.	16e	.
=42	=42	=42	=42
4r	2a	16e	1ccc#
.	.	16dd#	.
.	.	16ee	.
.	.	16dd#	.
4C#	.	16ee	.
.	.	16dd#	.
.	.	16ee	.
.	.	16dd#	.
4F#	2a#	16ee	.
.	.	16dd	.
.	.	16cc#	.
.	.	16b	.
4FF#	.	16a#	.
.	.	16g	.
.	.	16f#	.
.	.	16e	.
=43	=43	=43	=43
4BB	4b	16d	4ddd
.	.	16dd	.
.	.	16b	.
.	.	16a	.
4AA	4cc#	16g	4eee
.	.	16e	.
.	.	16a	.
.	.	16g	.
2D	4dd	16f#	4fff#
.	.	16e	.
.	.	16d	.
.	.	16e	.
.	4b	16f#	4ddd
.	.	16b	.
.	.	16dd	.
.	.	16ff#	.
=44	=44	=44	=44
4E	2a	16e	2ccc#
.	.	16d#	.
.	.	16e	.
.	.	16f#	.
4EE	.	16g#	.
.	.	16a	.
.	.	16b	.
.	.	16cc#	.
4E	8g#	16dd	8bb
.	.	16cc#	.
.	8a	16b	8ccc#
.	.	16a	.
4r	8b	16g#	8ddd
.	.	16f#	.
.	8b#	16e	8ddd#
.	.	16d	.
=45	=45	=45	=45
4r	1cc#	16c#	[1eee
.	.	16e	.
.	.	16f#	.
.	.	16g#	.
4e	.	16a	.
.	.	16g#	.
.	.	16b	.
.	.	16a	.
4A	.	16cc#	.
.	.	16b	.
.	.	16a	.
.	.	16g#	.
4c#	.	16f#	.
.	.	16e	.
.	.	16d	.
.	.	16c#	.
=46	=46	=46	=46
4r	1dd	16B	1eee_
.	.	16d#	.
.	.	16e	.
.	.	16f#	.
4B	.	16g#	.
.	.	16f#	.
.	.	16a	.
.	.	16g#	.
4E	.	16b	.
.	.	16a	.
.	.	16g#	.
.	.	16f#	.
4G#	.	16e	.
.	.	16d	.
.	.	16c#	.
.	.	16B	.
=47	=47	=47	=47
8A	8.cc#	16A	8.eee]
.	.	16c#	.
8r	.	16e	.
.	16a	16a	16ccc#
8D	8.ff#	16B	8.ddd
.	.	16d	.
8r	.	16f#	.
.	16dd	16b	16bb
8E	8cc#	16c#	8aa
.	.	16e	.
8r	8r	16a	8r
.	.	16cc#	.
8E	8b	16d	8gg#
.	.	16g#	.
8r	8r	16b	8r
.	.	16dd	.
=48	=48	=48	=48
8A	2b	16dd	2gg#
.	.	16cc#	.
8r	.	16b	.
.	.	16a	.
8E	.	16g#	.
.	.	16f#	.
8r	.	16e	.
.	.	16d	.
4AA	4a	4c#	4aa
4r	16c#	4r	4r
.	16d	.	.
.	16c#	.	.
.	16d	.	.
=49	=49	=49	=49
8r	8f#	8r	8r
8A	8e	8a	8cc#
8AA	4.e	8a	8cc#
8A	.	8b	8dd
4AA	.	4cc#	4ee
.	8cc#	.	.
4r	8b	4r	4r
.	8a	.	.
=50	=50	=50	=50
8r	16g#	8r	8r
.	16b	.	.
8e	16ee	8ee	8gg#
.	16dd	.	.
8E	[4dd	8ee	8gg#
8e	.	8ff#	8aa
4E	16dd]	4gg#	4bb
.	16cc#	.	.
.	16b	.	.
.	16a	.	.
4r	16g#	4r	4r
.	16f#	.	.
.	16e	.	.
.	16d	.	.
=51	=51	=51	=51
2A	8c#	2.cc#	2ee
.	16a	.	.
.	16b	.	.
.	16cc#	.	.
.	16b	.	.
.	16a	.	.
.	16g#	.	.
2F#	16b	.	2aa
.	16a	.	.
.	16g#	.	.
.	16f#	.	.
.	16g#	4dd#	.
.	16f#	.	.
.	16e	.	.
.	16d#	.	.
=52	=52	=52	=52
8r	8f#	8r	8r
8E	8e	8ee	8gg#
8EE	[4e	8ee	8gg#
8E	.	8ff#	8aa
4EE	16e]	4gg#	4bb
.	16e#	.	.
.	16f#	.	.
.	16d	.	.
4r	16c#	4r	4r
.	16e	.	.
.	16d	.	.
.	16f#	.	.
=53	=53	=53	=53
8r	8d#	8r	8r
8A	8e	8a	8cc#
8AA	4.e	8a	8cc#
8A	.	8b	8dd
4AA	.	4cc#	4ee
.	8a	.	.
4r	8cc#	4r	4r
.	8ee	.	.
=54	=54	=54	=54
8r	8.ee	8r	8r
8E	.	8ee	8gg#
.	16b	.	.
8EE	4.b	8ee	8gg#
8E	.	8ff#	8aa
4EE	.	4gg#	4bb
.	16cc#	.	.
.	16b	.	.
4r	16a	4r	4r
.	16g#	.	.
.	16f#	.	.
.	16e	.	.
=55	=55	=55	=55
8B	4d#	8ff#	8aa
8B	.	8ff#	8aa
8c#	4e	8ee	8gg#
8c#	.	8ee	8gg#
8A	8.f#	8cc#	8aa
8A	.	8cc#	8aa
.	16g#	.	.
8B	8.a	8dd#	8ff#
8B	.	8dd#	8ff#
.	16b	.	.
=56	=56	=56	=56
8E	4a	4dd#	4ff#
8E	.	.	.
8BB	4g#	4ee	4ee
8GG#	.	.	.
4EE	4r	4r	4r
4r	16g#	4r	4r
.	16a	.	.
.	16g#	.	.
.	16a	.	.
=57	=57	=57	=57
8r	8cc#	8r	8r
8d	8b	8ee	8gg#
8D	4.b	8ee	8gg#
8d	.	8ff#	8aa
4D	.	4gg#	4bb
.	16a#	.	.
.	16b	.	.
4r	16a#	4r	4r
.	16b	.	.
.	16dd	.	.
.	16cc#	.	.
=58	=58	=58	=58
8r	8a#	8r	8r
8c#	8b	8ee#	8gg#
8C#	4.b	8ee#	8gg#
8c#	.	8ff#	8aa
4C#	.	4gg#	4bb
.	16a#	.	.
.	16b	.	.
4r	16a#	4r	4r
.	16b	.	.
.	16dd	.	.
.	16b	.	.
=59	=59	=59	=59
4F#	16g#	[2cc# 2a	4aa
.	16a	.	.
.	16cc#	.	.
.	16a	.	.
4E	16f#	.	4gg
.	16g	.	.
.	16b	.	.
.	16g	.	.
8D	16e#	8dd 8a]	8ff#
.	16f#	.	.
8r	16g#	8r	8r
.	16a#	.	.
8BB	16b	8dd 8f#	8ff#
.	16cc#	.	.
8r	16dd	8r	8r
.	16b	.	.
=60	=60	=60	=60
[2EE	16a	8r	8r
.	16g#	.	.
.	16cc#	8e	8g#
.	16b	.	.
.	16a	8e	8g#
.	16g#	.	.
.	16f#	8f#	8a
.	16e	.	.
8EE]	16d#	4g#	4b
.	16e	.	.
4.r	16f#	.	.
.	16d	.	.
.	16c#	4r	4r
.	16d	.	.
.	16c#	.	.
.	16d	.	.
=61	=61	=61	=61
8r	8f#	8r	8r
8A	8e	8a	8cc#
8AA	4.e	8a	8cc#
8A	.	8b	8dd
4AA	.	4cc#	4ee
.	8cc#	.	.
4r	8b	4r	4r
.	8a	.	.
=62	=62	=62	=62
8r	16g#	8r	8r
.	16b	.	.
8e	16ee	8ee	8gg#
.	16dd	.	.
8E	[4dd	8ee	8gg#
8e	.	8ff#	8aa
4E	16dd]	4gg#	4bb
.	16cc#	.	.
.	16b	.	.
.	16a	.	.
4r	16g#	4r	4r
.	16f#	.	.
.	16e	.	.
.	16d	.	.
=63	=63	=63	=63
8F#	8c#	8cc#	8aa
8F#	8a	8cc#	8aa
8D	8f#	8dd	8bb
8D	8dd	8ff#	8bb
8E	4.e	8cc#	8aa
8E	.	8cc#	8aa
8EE	.	8b	8gg#
8EE	16f#	8b	8gg#
.	16g#	.	.
=64	=64	=64	=64
8AA	4b	4dd	4gg#
8A	.	.	.
8E	4a	4cc#	4aa
8C#	.	.	.
4AA	4r	4r	4r
4r	4r	4r	4e
=65	=65	=65	=65
8r	1e	4.c#	4a
16A	.	.	.
16B	.	.	.
8c#	.	.	8a
8G#	.	8d	8b
8A	.	2c#	4cc#
8E	.	.	.
8C#	.	.	8b
8AA	.	.	8a
=66	=66	=66	=66
8GG#	2.b	2d	4.ee
16B	.	.	.
16c#	.	.	.
8d	.	.	.
8B	.	.	8ff#
8G#	.	4dd	4ee
8E	.	.	.
8BB	[4e	8g#	4dd
8GG#	.	8b	.
=67	=67	=67	=67
8AA	4e]	2.a	4cc#
16E	.	.	.
16D	.	.	.
8C#	8A	.	4ee
8AA	8c#	.	.
8D	4d	.	4f#
16F#	.	.	.
16E	.	.	.
8D	4f#	8b	4ff#
8BB	.	8dd	.
=68	=68	=68	=68
8E	[2e	2a	2cc#
16E	.	.	.
16D#	.	.	.
8E	.	.	.
16E	.	.	.
16D#	.	.	.
8E	4e]	4g#	4b
16F#	.	.	.
16E	.	.	.
8D	4r	4r	4e
16C#	.	.	.
16BB	.	.	.
=69	=69	=69	=69
8AA	2e	4.c#	4.a
16A	.	.	.
16B	.	.	.
8c#	.	.	.
8G#	.	8d	8b
8A	[2e	2c#	4cc#
8E	.	.	.
8C#	.	.	8b
8AA	.	.	8a
=70	=70	=70	=70
8GG#	2e]	2.B	4.b
16G#	.	.	.
16A	.	.	.
8B	.	.	.
8G#	.	.	8ee
8E	4g#	.	4ee
8BB	.	.	.
8GG#	4e	4b	4gg#
8EE	.	.	.
=71	=71	=71	=71
8AA	2c#	4a	4ff#
16A	.	.	.
16G#	.	.	.
8F#	.	4cc#	4aa
8A	.	.	.
8B	4B	4f#	4dd#
16D#	.	.	.
16C#	.	.	.
8BB	4b	4a	4ff#
8D#	.	.	.
=72	=72	=72	=72
8E	[2b	2a	2ff#
16G#	.	.	.
16A	.	.	.
8B	.	.	.
16c#	.	.	.
16d#	.	.	.
4e	4b]	4g#	4ee
4r	4r	4r	4b
=73	=73	=73	=73
8D	[1e	4.g#	4.b
16B	.	.	.
16c#	.	.	.
8d	.	.	.
8c#	.	8a	8cc#
8B	.	4b	4dd
8G#	.	.	.
8D	.	4g#	4b
8BB	.	.	.
=74	=74	=74	=74
8AA	1e]	4.a	4.cc#
16c#	.	.	.
16d	.	.	.
8e	.	.	.
8d	.	8b	8dd
8c#	.	4cc#	4ee
8A	.	.	.
8E	.	4a#	4cc#
8C#	.	.	.
=75	=75	=75	=75
8BB	1f#	4.b	4.dd
16d	.	.	.
16e	.	.	.
8f#	.	.	.
8e	.	8cc#	8ee
8d	.	4dd	4ff#
8B	.	.	.
8F#	.	4b	4dd
8D	.	.	.
=76	=76	=76	=76
8E	[2e	4.a	4.cc#
16E	.	.	.
16D#	.	.	.
8E	.	.	.
16E	.	8b	8dd
16D#	.	.	.
8E	4e]	4g#	4b
16F#	.	.	.
16E	.	.	.
8D	4r	4r	4e
16C#	.	.	.
16BB	.	.	.
=77	=77	=77	=77
8AA	1e	4.c#	4.a
16A	.	.	.
16B	.	.	.
8c#	.	.	.
8G#	.	8d	8b
8A	.	2c#	4cc#
8E	.	.	.
8C#	.	.	8b
8AA	.	.	8a
=78	=78	=78	=78
8GG#	2.b	2d	4.ee
16B	.	.	.
16c#	.	.	.
8d	.	.	.
8B	.	.	8ff#
8G#	.	4dd	4ee
8E	.	.	.
8BB	4e	8g#	4dd
8GG#	.	8b	.
=79	=79	=79	=79
8AA	8e	4.a	8cc#
16C#	4A	.	8ee
16AA	.	.	.
8F#	.	.	8dd
16D	8a	16f#	8ff#
16F#	.	16d	.
8E	4e	4c#	4a
8D	.	.	.
8E	4e	4B	4g#
8EE	.	.	.
=80	=80	=80	=80
8AA	[2e	2d	2b
16C#	.	.	.
16D	.	.	.
8E	.	.	.
16F#	.	.	.
16G#	.	.	.
4A	4e]	4c#	4a
4r	4r	4r	4r
==	==	==	==
*-	*-	*-	*-
!!!RWG1: This file contains only pitch and duration data.
!!!RWG2: Transposing instruments are not transposed.
!!!RWG3: Spines may have incompatible meters.
!!!RWG4: Durations of rests and tied notes may be interpreted.
!!!RWG: Key is interpreted using the Humdrum key tool.
!!!AFT: stage1
!!!END: 1997/04/15
!!!KEY: 667651042
!!!EMD: Converted from MuseData to Humdrum Dec 16, 2000, by Andreas Kornstaedt using muse2kern.
!!!EMD: Manual editing by Craig Sapp, Nov 2001
